public/disney-plus-logo.svg

<?xml version="1.0" encoding="UTF-8"?>
<svg id="Layer_1" xmlns="http://www.w3.org/2000/svg" version="1.1" viewBox="0 0 1041 565">
  <!-- Generator: Adobe Illustrator 29.5.1, SVG Export Plug-In . SVG Version: 2.1.0 Build 141)  -->
  <defs>
    <style>
      .st0 {
        fill: #fff;
      }
    </style>
  </defs>
  <g id="Layer_11" data-name="Layer_1">
    <g id="group">
      <g id="group-1">
        <g id="group-2">
          <path id="Path" class="st0" d="M735.8,365.7c-14.4,3.3-52.3,5.2-52.3,5.2l-4.8,15s18.9-1.6,32.7-.2c0,0,4.5-.5,5,5.1.2,5.2-.4,10.8-.4,10.8,0,0-.3,3.4-5.1,4.2-5.2.9-40.8,2.2-40.8,2.2l-5.8,19.5s-2.1,4.5,2.7,3.2c4.5-1.2,41.8-8.2,46.7-7.2,5.2,1.3,11,8.2,9.3,14.6-2,7.8-39.2,31.6-61.9,29.9,0,0-11.9.8-22-15.3-9.4-15.3,3.6-44.4,3.6-44.4,0,0-5.9-13.6-1.6-18.1,0,0,2.6-2.3,10-2.9l9.1-18.9s-10.4.7-16.6-6.9c-5.8-7.3-6.2-10.6-1.8-12.6,4.7-2.3,48-10.2,77.8-9.2,0,0,10.4-1,19.3,17-.1,0,4.3,7.3-3.1,9ZM623.7,438.3c-3.8,9-13.9,18.6-26.4,12.6-12.4-6-32.1-46.3-32.1-46.3,0,0-7.5-15-8.9-14.7,0,0-1.6-2.9-2.6,13.5s.2,48.3-6.3,53.3c-6.2,5-13.7,3-17.6-2.9-3.5-5.8-5-19.6-3.1-43.8,2.3-24.2,7.9-50,15.1-58.1,7.2-8,13-2.2,15.2-.1,0,0,9.6,8.7,25.5,34.3l2.8,4.7s14.4,24.2,15.9,24.1c0,0,1.2,1.1,2.2.3,1.5-.4.9-8.2.9-8.2,0,0-3-26.3-16.1-70.9,0,0-2-5.6-.6-10.8,1.3-5.3,6.6-2.8,6.6-2.8,0,0,20.4,10.2,30.2,43.4,9.7,33.5,3.1,63.4-.7,72.4ZM523.5,353c-1.7,3.4-2.7,8.3-11.3,9.6,0,0-82.3,5.6-86.2,11.4,0,0-2.9,3.4,1.6,4.4,4.5.9,23.1,3.4,32.1,3.9,9.6.1,42,.4,53.6,14.9,0,0,6.9,6.9,6.6,22.5-.3,16-3.1,21.6-9.3,27.4-6.5,5.4-62.3,30.4-98.3-8,0,0-16.6-18.5,5.7-32.5,0,0,16.1-9.7,57,1.7,0,0,12.4,4.5,11.8,9-.7,4.8-10.2,9.9-24,9.6-13.4-.4-23.2-6.8-21.3-5.8,1.8.7-14.4-7.8-19.4-2-5,5.3-3.8,8.6,1.1,11.9,12.5,7.1,60.8,4.6,75.2-11.4,0,0,5.7-6.5-3-11.8-8.7-5-33.6-8-43.3-8.5-9.3-.5-43.9.1-48.9-9.1,0,0-5-6.2.5-23.8,5.8-18.4,46.1-25.5,63.5-27.1,0,0,47.9-1.7,56.7,8.1-.1,0,1.1,2.3-.4,5.6ZM387.5,460.9c-5.8,4.3-18.1,2.4-21.6-2.4-3.5-4.3-4.7-21.4-4-48.2.7-27.1,1.3-60.7,7.1-66,6.2-5.4,10-.7,12.4,3,2.6,3.6,5.7,7.6,6.4,16.1.6,8.5,2.6,53.1,2.6,53.1,0,0,2.6,40.2-2.9,44.4ZM400,317.1c-16.9,5.6-28.5,3.7-38.3-.5-4.3,7.5-6.8,9.8-10.1,10.3-4.8.5-9.1-7.2-9.9-9.7-.8-1.9-3.1-5.1-.3-12.7-9.6-8.6-10.3-20.2-8.7-28,2.4-9,18.6-43.2,67.9-47.2,0,0,24.1-1.8,28.2,11.1h.7s23.4.1,22.9,20.9c-.3,20.9-26,46.9-52.4,55.8ZM354,270.8c-5,8-5.2,12.8-2.9,16.1,5.7-8.7,16.1-22.4,31.4-32.8-11.8,1-21.7,6.1-28.5,16.7ZM422.1,257.4c-15.5,2.3-39.5,23.1-50.9,40.1,17.5,3.2,48.4,2,62.1-25.9-.1,0,6.5-17.3-11.2-14.2ZM842.9,418.5c-9.3,16.2-35.4,50-70.2,42.1-11.5,27.9-21.1,56-26.6,98.2,0,0-1.2,8.2-8,5.3-6.7-2.4-17.9-13.6-20.1-29.1-2.4-20.4,6.7-54.9,25.2-94.4-5.4-8.8-9.1-21.4-5.9-39.3,0,0,4.7-33.2,38-63.2,0,0,4-3.5,6.3-2.4,2.6,1.1,1.4,11.9-.7,17.1-2.1,5.2-17,31-17,31,0,0-9.3,17.4-6.7,31.1,17.5-26.9,57.3-81.2,82-64.1,8.3,5.9,12.1,18.8,12.1,32.7-.1,12.3-3,25.3-8.4,35ZM835.7,375.9s-1.4-10.7-11.8,1.1c-9,9.9-25.2,28.6-38.3,53.9,13.7-1.5,26.9-9,30.9-12.8,6.5-5.8,21.6-21.4,19.2-42.2ZM350.2,389.5c-1.9,24.2-11.2,64.9-77.1,85-43.5,13.1-84.6,6.8-107,1.1-.5,8.9-1.5,12.7-2.9,14.2-1.9,1.9-16.1,10.1-23.9-1.5-3.5-5.5-5.3-15.5-6.3-24.4-50.4-23.2-73.6-56.6-74.5-58.1-1.1-1.1-12.6-13.1-1.1-27.8,10.8-13.3,46.1-26.6,77.9-32,1.1-27.2,4.3-47.7,8.1-57.1,4.6-10.9,10.4-1.1,15.4,6.3,4.2,5.5,6.7,29.2,6.9,48.1,20.8-1,33.1.5,56.3,4.7,30.2,5.5,50.4,20.9,48.6,38.4-1.3,17.2-17.1,24.3-23.1,24.8-6.3.5-16.1-4-16.1-4-6.7-3.2-.5-6,7.6-9.5,8.8-4.3,6.8-8.7,6.8-8.7-3.3-9.6-42.5-16.3-81.5-16.3-.2,21.5.9,57.2,1.4,78,27.3,5.2,47.7,4.2,47.7,4.2,0,0,99.6-2.8,102.6-66.4,3.1-63.7-99.3-124.8-175-144.2-75.6-19.8-118.4-6-122.1-4.1-4,2-.3,2.6-.3,2.6,0,0,4.1.6,11.2,3,7.5,2.4,1.7,6.3,1.7,6.3-12.9,4.1-27.4,1.5-30.2-4.4-2.8-5.9,1.9-11.2,7.3-18.8,5.4-8,11.3-7.7,11.3-7.7,93.5-32.4,207.4,26.2,207.4,26.2,106.7,54.1,124.9,117.5,122.9,142.1ZM68,386.2c-10.6,5.2-3.3,12.7-3.3,12.7,19.9,21.4,44.4,34.8,67.7,43.1,2.7-36.9,2.3-49.9,2.6-68.5-36.4,2.5-57.4,8.3-67,12.7Z"/>
        </g>
      </g>
      <g id="group-3">
        <g id="group-4">
          <g id="group-5">
            <path id="Path-1" class="st0" d="M1040.9,378.6v13.2c0,2.9-2.3,5.2-5.2,5.2h-62.9c0,3.3.1,6.2.1,8.9,0,19.5-.8,35.4-2.7,53.3-.3,2.7-2.5,4.7-5.1,4.7h-13.6c-1.4,0-2.7-.6-3.6-1.6-.9-1-1.4-2.4-1.2-3.8,1.9-17.8,2.8-33.5,2.8-52.6,0-2.8,0-5.7-.1-8.9h-62.2c-2.9,0-5.2-2.3-5.2-5.2v-13.2c0-2.9,2.3-5.2,5.2-5.2h61.3c-1.3-21.5-3.9-42.2-8.1-63.2-.2-1.3.1-2.6.9-3.6s2-1.6,3.3-1.6h14.7c2.3,0,4.2,1.6,4.7,3.9,4.1,21.7,6.7,42.8,8,64.5h63.7c2.8,0,5.2,2.4,5.2,5.2Z"/>
          </g>
        </g>
      </g>
      <g id="group-6">
        <g id="group-7">
          <path id="Path-2" class="st0" d="M200.2,204.3h-.1M199.4,204.4c-.3,0-.6-.1-.9-.1.3.1.6.1.9.1h.3-.3ZM199.4,204.4c-.3,0-.6-.1-.9-.1.3.1.6.1.9.1h.3-.3Z"/>
          <path id="Path-3" class="st0" d="M955.3,273.9c-32.5-79.9-87.4-148-158.8-197C723.4,26.8,637.7.3,548.7.3,401.5.3,264.9,73.4,183.4,195.9c-.9,1.3-1.1,3-.6,4.5.5,1.6,1.7,2.7,3.2,3.2l11.4,3.9c.7.2,1.4.3,2,.3,2.1,0,4.1-1.1,5.3-2.8,37.4-55,88-100.7,146.4-132.3,60.3-32.6,128.6-49.9,197.5-49.9,83.3,0,163.6,24.6,232.4,71,67.1,45.3,119.2,108.6,150.7,182.9.9,2.2,3.1,3.7,5.5,3.7h13.6c1.6,0,3.1-.8,3.9-2.1,1-1.3,1.2-2.9.6-4.4ZM199.4,204.4c-.3,0-.6-.1-.9-.2.3.1.6.2.9.2h.2-.2ZM934.4,278.6c.3.2.6.4.9.5-.3-.2-.6-.3-.9-.5Z"/>
        </g>
      </g>
    </g>
  </g>
</svg>

<?xml version="1.0" encoding="UTF-8"?>
<svg width="1041px" height="565px" viewBox="0 0 1041 565" xmlns="http://www.w3.org/2000/svg" xmlns:xlink="http://www.w3.org/1999/xlink" version="1.1">
 <!-- Generated by Pixelmator Pro 2.2 -->
 <g id="Layer_1">
  <g id="group">
   <g id="group-1">
    <g id="group-2">
     <path id="Path" d="M735.8 365.7 C721.4 369 683.5 370.9 683.5 370.9 L678.7 385.9 C678.7 385.9 697.6 384.3 711.4 385.7 711.4 385.7 715.9 385.2 716.4 390.8 716.6 396 716 401.6 716 401.6 716 401.6 715.7 405 710.9 405.8 705.7 406.7 670.1 408 670.1 408 L664.3 427.5 C664.3 427.5 662.2 432 667 430.7 671.5 429.5 708.8 422.5 713.7 423.5 718.9 424.8 724.7 431.7 723 438.1 721 445.9 683.8 469.7 661.1 468 661.1 468 649.2 468.8 639.1 452.7 629.7 437.4 642.7 408.3 642.7 408.3 642.7 408.3 636.8 394.7 641.1 390.2 641.1 390.2 643.7 387.9 651.1 387.3 L660.2 368.4 C660.2 368.4 649.8 369.1 643.6 361.5 637.8 354.2 637.4 350.9 641.8 348.9 646.5 346.6 689.8 338.7 719.6 339.7 719.6 339.7 730 338.7 738.9 356.7 738.8 356.7 743.2 364 735.8 365.7 Z M623.7 438.3 C619.9 447.3 609.8 456.9 597.3 450.9 584.9 444.9 565.2 404.6 565.2 404.6 565.2 404.6 557.7 389.6 556.3 389.9 556.3 389.9 554.7 387 553.7 403.4 552.7 419.8 553.9 451.7 547.4 456.7 541.2 461.7 533.7 459.7 529.8 453.8 526.3 448 524.8 434.2 526.7 410 529 385.8 534.6 360 541.8 351.9 549 343.9 554.8 349.7 557 351.8 557 351.8 566.6 360.5 582.5 386.1 L585.3 390.8 C585.3 390.8 599.7 415 601.2 414.9 601.2 414.9 602.4 416 603.4 415.2 604.9 414.8 604.3 407 604.3 407 604.3 407 601.3 380.7 588.2 336.1 588.2 336.1 586.2 330.5 587.6 325.3 588.9 320 594.2 322.5 594.2 322.5 594.2 322.5 614.6 332.7 624.4 365.9 634.1 399.4 627.5 429.3 623.7 438.3 Z M523.5 353 C521.8 356.4 520.8 361.3 512.2 362.6 512.2 362.6 429.9 368.2 426 374 426 374 423.1 377.4 427.6 378.4 432.1 379.3 450.7 381.8 459.7 382.3 469.3 382.4 501.7 382.7 513.3 397.2 513.3 397.2 520.2 404.1 519.9 419.7 519.6 435.7 516.8 441.3 510.6 447.1 504.1 452.5 448.3 477.5 412.3 439.1 412.3 439.1 395.7 420.6 418 406.6 418 406.6 434.1 396.9 475 408.3 475 408.3 487.4 412.8 486.8 417.3 486.1 422.1 476.6 427.2 462.8 426.9 449.4 426.5 439.6 420.1 441.5 421.1 443.3 421.8 427.1 413.3 422.1 419.1 417.1 424.4 418.3 427.7 423.2 431 435.7 438.1 484 435.6 498.4 419.6 498.4 419.6 504.1 413.1 495.4 407.8 486.7 402.8 461.8 399.8 452.1 399.3 442.8 398.8 408.2 399.4 403.2 390.2 403.2 390.2 398.2 384 403.7 366.4 409.5 348 449.8 340.9 467.2 339.3 467.2 339.3 515.1 337.6 523.9 347.4 523.8 347.4 525 349.7 523.5 353 Z M387.5 460.9 C381.7 465.2 369.4 463.3 365.9 458.5 362.4 454.2 361.2 437.1 361.9 410.3 362.6 383.2 363.2 349.6 369 344.3 375.2 338.9 379 343.6 381.4 347.3 384 350.9 387.1 354.9 387.8 363.4 388.4 371.9 390.4 416.5 390.4 416.5 390.4 416.5 393 456.7 387.5 460.9 Z M400 317.1 C383.1 322.7 371.5 320.8 361.7 316.6 357.4 324.1 354.9 326.4 351.6 326.9 346.8 327.4 342.5 319.7 341.7 317.2 340.9 315.3 338.6 312.1 341.4 304.5 331.8 295.9 331.1 284.3 332.7 276.5 335.1 267.5 351.3 233.3 400.6 229.3 400.6 229.3 424.7 227.5 428.8 240.4 L429.5 240.4 C429.5 240.4 452.9 240.5 452.4 261.3 452.1 282.2 426.4 308.2 400 317.1 Z M354 270.8 C349 278.8 348.8 283.6 351.1 286.9 356.8 278.2 367.2 264.5 382.5 254.1 370.7 255.1 360.8 260.2 354 270.8 Z M422.1 257.4 C406.6 259.7 382.6 280.5 371.2 297.5 388.7 300.7 419.6 299.5 433.3 271.6 433.2 271.6 439.8 254.3 422.1 257.4 Z M842.9 418.5 C833.6 434.7 807.5 468.5 772.7 460.6 761.2 488.5 751.6 516.6 746.1 558.8 746.1 558.8 744.9 567 738.1 564.1 731.4 561.7 720.2 550.5 718 535 715.6 514.6 724.7 480.1 743.2 440.6 737.8 431.8 734.1 419.2 737.3 401.3 737.3 401.3 742 368.1 775.3 338.1 775.3 338.1 779.3 334.6 781.6 335.7 784.2 336.8 783 347.6 780.9 352.8 778.8 358 763.9 383.8 763.9 383.8 763.9 383.8 754.6 401.2 757.2 414.9 774.7 388 814.5 333.7 839.2 350.8 847.5 356.7 851.3 369.6 851.3 383.5 851.2 395.8 848.3 408.8 842.9 418.5 Z M835.7 375.9 C835.7 375.9 834.3 365.2 823.9 377 814.9 386.9 798.7 405.6 785.6 430.9 799.3 429.4 812.5 421.9 816.5 418.1 823 412.3 838.1 396.7 835.7 375.9 Z M350.2 389.5 C348.3 413.7 339 454.4 273.1 474.5 229.6 487.6 188.5 481.3 166.1 475.6 165.6 484.5 164.6 488.3 163.2 489.8 161.3 491.7 147.1 499.9 139.3 488.3 135.8 482.8 134 472.8 133 463.9 82.6 440.7 59.4 407.3 58.5 405.8 57.4 404.7 45.9 392.7 57.4 378 68.2 364.7 103.5 351.4 135.3 346 136.4 318.8 139.6 298.3 143.4 288.9 148 278 153.8 287.8 158.8 295.2 163 300.7 165.5 324.4 165.7 343.3 186.5 342.3 198.8 343.8 222 348 252.2 353.5 272.4 368.9 270.6 386.4 269.3 403.6 253.5 410.7 247.5 411.2 241.2 411.7 231.4 407.2 231.4 407.2 224.7 404 230.9 401.2 239 397.7 247.8 393.4 245.8 389 245.8 389 242.5 379.4 203.3 372.7 164.3 372.7 164.1 394.2 165.2 429.9 165.7 450.7 193 455.9 213.4 454.9 213.4 454.9 213.4 454.9 313 452.1 316 388.5 319.1 324.8 216.7 263.7 141 244.3 65.4 224.5 22.6 238.3 18.9 240.2 14.9 242.2 18.6 242.8 18.6 242.8 18.6 242.8 22.7 243.4 29.8 245.8 37.3 248.2 31.5 252.1 31.5 252.1 18.6 256.2 4.1 253.6 1.3 247.7 -1.5 241.8 3.2 236.5 8.6 228.9 14 220.9 19.9 221.2 19.9 221.2 113.4 188.8 227.3 247.4 227.3 247.4 334 301.5 352.2 364.9 350.2 389.5 Z M68 386.2 C57.4 391.4 64.7 398.9 64.7 398.9 84.6 420.3 109.1 433.7 132.4 442 135.1 405.1 134.7 392.1 135 373.5 98.6 376 77.6 381.8 68 386.2 Z" fill="#01147c" fill-opacity="1" stroke="none"/>
    </g>
   </g>
   <g id="group-3">
    <g id="group-4">
     <g id="group-5">
      <path id="Path-1" d="M1040.9 378.6 L1040.9 391.8 C1040.9 394.7 1038.6 397 1035.7 397 L972.8 397 C972.8 400.3 972.9 403.2 972.9 405.9 972.9 425.4 972.1 441.3 970.2 459.2 969.9 461.9 967.7 463.9 965.1 463.9 L951.5 463.9 C950.1 463.9 948.8 463.3 947.9 462.3 947 461.3 946.5 459.9 946.7 458.5 948.6 440.7 949.5 425 949.5 405.9 949.5 403.1 949.5 400.2 949.4 397 L887.2 397 C884.3 397 882 394.7 882 391.8 L882 378.6 C882 375.7 884.3 373.4 887.2 373.4 L948.5 373.4 C947.2 351.9 944.6 331.2 940.4 310.2 940.2 308.9 940.5 307.6 941.3 306.6 942.1 305.6 943.3 305 944.6 305 L959.3 305 C961.6 305 963.5 306.6 964 308.9 968.1 330.6 970.7 351.7 972 373.4 L1035.7 373.4 C1038.5 373.4 1040.9 375.8 1040.9 378.6 Z" fill="#01147c" fill-opacity="1" stroke="none"/>
     </g>
    </g>
   </g>
   <g id="group-6">
    <g id="group-7">
     <path id="Path-2" d="M200.2 204.3 L200.1 204.3 M199.4 204.4 C199.1 204.4 198.8 204.3 198.5 204.3 198.8 204.4 199.1 204.4 199.4 204.4 L199.7 204.4 C199.6 204.4 199.5 204.4 199.4 204.4 Z M199.4 204.4 C199.1 204.4 198.8 204.3 198.5 204.3 198.8 204.4 199.1 204.4 199.4 204.4 L199.7 204.4 C199.6 204.4 199.5 204.4 199.4 204.4 Z" fill="none" stroke="none"/>
     <defs>
      <radialGradient id="radial-gradient" gradientUnits="userSpaceOnUse" cx="942.524" cy="279.896" r="760.124" fx="942.524" fy="279.896">
       <stop offset="0.007" stop-color="#021192" stop-opacity="1"/>
       <stop offset="0.03" stop-color="#021096" stop-opacity="1"/>
       <stop offset="0.057" stop-color="#010cb4" stop-opacity="1"/>
       <stop offset="0.084" stop-color="#0008ce" stop-opacity="1"/>
       <stop offset="0.111" stop-color="#0006d7" stop-opacity="1"/>
       <stop offset="0.138" stop-color="#0004e1" stop-opacity="1"/>
       <stop offset="0.165" stop-color="#0001fa" stop-opacity="1"/>
       <stop offset="0.191" stop-color="#0000fe" stop-opacity="1"/>
       <stop offset="0.216" stop-color="#0f1eff" stop-opacity="1"/>
       <stop offset="1" stop-color="#00ffff" stop-opacity="0"/>
      </radialGradient>
     </defs>
     <path id="Path-3" d="M955.3 273.9 C922.8 194 867.9 125.9 796.5 76.9 723.4 26.8 637.7 0.3 548.7 0.3 401.5 0.3 264.9 73.4 183.4 195.9 182.5 197.2 182.3 198.9 182.8 200.4 183.3 202 184.5 203.1 186 203.6 L197.4 207.5 C198.1 207.7 198.8 207.8 199.4 207.8 201.5 207.8 203.5 206.7 204.7 205 242.1 150 292.7 104.3 351.1 72.7 411.4 40.1 479.7 22.8 548.6 22.8 631.9 22.8 712.2 47.4 781 93.8 848.1 139.1 900.2 202.4 931.7 276.7 932.6 278.9 934.8 280.4 937.2 280.4 L950.8 280.4 C952.4 280.4 953.9 279.6 954.7 278.3 955.7 277 955.9 275.4 955.3 273.9 Z M199.4 204.4 C199.1 204.4 198.8 204.3 198.5 204.2 198.8 204.3 199.1 204.4 199.4 204.4 L199.6 204.4 C199.6 204.4 199.5 204.4 199.4 204.4 Z M934.4 278.6 C934.7 278.8 935 279 935.3 279.1 935 278.9 934.7 278.8 934.4 278.6 Z" fill-opacity="1" fill="url(#radial-gradient)" stroke="none"/>
    </g>
   </g>
  </g>
 </g>
</svg>
